X:7525
T:Il passo del bosco (M.Martinotti) - Mazurca
C:La Ciapa Rusa: Retanavota 9a
M:3/4
L:1/8
K:G
~DG BA ~GE|B6|~DG BA ~GE|c4-cc|\
cA Fc EA|~D4 (3EFE|1 DE FG AG|BA G4:|
|2 Dc AF (3cAF|G2G2z2\
|:DE FD (3EFA|BG|:DE FD (3EFA|BG